static/images/mobile/copyright/wikipedia-tagline-bh.svg

<?xml version="1.0" encoding="UTF-8"?>
<svg width="96px" height="18px" viewBox="0 0 96 18" version="1.1" xmlns="http://www.w3.org/2000/svg" xmlns:xlink="http://www.w3.org/1999/xlink">
    <title>bh-tagline</title>
    <g id="Page-1" stroke="none" stroke-width="1" fill="none" fill-rule="evenodd">
        <path d="M5.05860933,10.235166 C5.11539436,10.1914857 5.32726208,9.999276 5.69421156,9.65853693 C5.88641658,9.44448943 5.98252142,8.97488647 5.98252608,8.2497271 L5.98252608,5.37968663 L2.93556603,5.37968663 L2.93556603,9.64543125 C2.93556417,10.2613801 3.11903705,10.7004038 3.48598467,10.9625042 L6.86712769,13.3607572 C7.13796208,13.5529669 7.40443506,13.7495455 7.66654569,13.950491 C7.93737915,14.2125951 8.07279914,14.5030932 8.07280659,14.8219879 C8.07279914,15.0753533 7.93301121,15.3571155 7.65344002,15.6672734 C7.53111824,15.8463756 7.3585666,15.9861644 7.13578417,16.08664 L6.47397152,15.4575901 C6.68364922,15.4095363 6.8693056,15.2937734 7.03094252,15.1103024 C7.19256733,14.9311965 7.27119857,14.7368024 7.26683622,14.5271201 C7.26246176,14.4179096 7.20348857,14.2977787 7.08991665,14.1667276 C7.06369971,14.1361483 6.93483209,14.0378591 6.70331285,13.8718598 L3.35493261,11.4670553 C3.20203622,11.3665844 2.920275,11.1700068 2.50964709,10.8773206 C2.2868572,10.711325 2.12959473,10.5147465 2.03785969,10.2875868 C1.92864825,10.0211175 1.87404392,9.66290952 1.87404485,9.21295994 L1.87404485,5.37968663 L0.904259646,5.37968663 L0,4.47542791 L8.41354194,4.47542791 L9.31124828,5.37313426 L7.07025861,5.37968663 L7.07025861,8.46596276 C7.06588415,8.92465008 7.03967373,9.23917501 6.99162737,9.40953756 C6.90862168,9.70659354 6.72296437,9.97743352 6.43465637,10.2220603 L5.3927923,11.1066619 L4.77029481,10.477612 C4.81834303,10.4339317 4.91444787,10.3531161 5.05860933,10.235166 M10.9493994,11.0738991 L9.59301043,9.30469591 C9.45322064,9.12122769 9.36803704,8.94212368 9.33745869,8.76738295 L9.33745869,8.45941039 C9.38114178,8.33273186 9.50564146,8.26939073 9.71095775,8.26938514 L10.923189,8.26938514 L10.923189,5.37968663 L8.37422679,5.37968663 L7.46996714,4.47542791 L17.0171091,4.47542791 L17.9344739,5.37968663 L15.7065886,5.37968663 L15.7065886,13.8718598 L14.4812526,12.6399705 L14.4812526,5.37968663 L11.8995266,5.37968663 L11.8995266,10.6610849 C11.9082597,10.7222453 11.9126285,10.8008766 11.9126323,10.8969786 C11.9126285,11.2071375 11.8056025,11.3949792 11.591554,11.460502 C11.5478672,11.4736095 11.5151044,11.4801628 11.4932657,11.48016 C11.4102628,11.4801628 11.3185259,11.4321099 11.2180559,11.3360032 L10.9493994,11.0738991 M17.9999999,5.37968663 L17.0236624,5.37968663 L16.1194028,4.47542791 L20.4179103,4.47542791 L21.3156169,5.37968663 L19.0746268,5.37968663 L19.0746268,13.8718598 L17.9999999,12.7841282 L17.9999999,5.37968663 M18.740444,4.47542791 C18.3953389,3.94249314 18.1179456,3.5362313 17.9082635,3.25664334 C17.0389516,2.09029263 16.5365859,1.43284885 16.4011649,1.28431014 C15.6279592,0.428117359 14.920279,0 14.2781216,0 C13.8150738,0 13.2755774,0.0917499515 12.6596285,0.275209782 L13.8522027,1.48744106 C14.2672032,1.42629555 14.5686225,1.3957172 14.7564614,1.39570415 C15.3636707,1.3957172 16.0538781,1.77139883 16.8270839,2.52275183 C17.4473967,3.12560246 17.9541307,3.77649387 18.3472878,4.47542791 L18.740444,4.47542791 M28.730251,11.6701853 C28.6953003,11.6963985 28.5620642,11.7095032 28.3305421,11.7095014 C28.230066,11.7095032 27.7386213,11.1874804 26.8562066,10.1434291 C26.7819422,10.0604336 26.6487061,9.91190796 26.4564978,9.69785208 C26.3210763,9.54059427 26.2533661,9.38551624 26.2533671,9.23261705 C26.2533661,8.93557131 26.4433914,8.78704565 26.8234435,8.78704006 C27.0549671,8.78704565 27.3782285,8.79141359 27.7932287,8.80014573 L27.7932287,5.37968663 L25.2770293,5.37968663 L24.3793227,4.47542791 L34.2016742,4.47542791 L35.0993808,5.37968663 L32.8387328,5.37968663 L32.8387328,13.8718598 L31.6396066,12.6727342 L31.6396066,9.92719341 L28.8481978,9.92719341 C28.8481943,10.4251949 28.8525627,10.8664031 28.861303,11.2508187 C28.8656678,11.4605048 28.8219838,11.6002936 28.730251,11.6701853 M31.6396066,5.37968663 L28.8481978,5.37968663 L28.8481978,8.80014573 L31.6396066,8.80014573 L31.6396066,5.37968663 M31.6789222,15.5689841 L30.9057151,14.7630138 C31.3906113,14.3873312 31.9126348,14.2125951 32.4717871,14.2388056 C32.9435766,14.2606471 33.3411008,14.487804 33.6643608,14.9202762 C33.9614132,15.3221683 34.1099378,15.7677443 34.1099378,16.2570072 C34.1099378,16.8423703 33.8674927,17.2901307 33.3825989,17.6002915 C32.9719712,17.8667598 32.4586845,18 31.8427372,18 C30.9690609,18 30.0342239,17.5740764 29.0382232,16.7222422 C28.243181,16.0407697 27.5529742,15.2369837 26.9676008,14.3108844 L27.3804148,14.3108844 C27.760473,14.9617749 28.4179169,15.5995616 29.3527482,16.2242444 C30.3356433,16.8795019 31.1831124,17.2071316 31.895158,17.2071353 C33.0702602,17.2071316 33.6578096,16.8663962 33.6578082,16.1849293 C33.6578096,15.9577696 33.5420471,15.737166 33.3105202,15.5231157 C33.078997,15.3134315 32.8496561,15.2085898 32.622497,15.2085908 C32.2511856,15.2085898 31.9366611,15.3287206 31.6789222,15.5689841 M41.8420094,8.55114636 L41.8420094,13.8587551 L40.7542769,12.7644702 L40.7542769,8.46596276 L38.6050232,8.46596276 C38.0633376,8.46596835 37.6352342,8.60138834 37.320713,8.8722246 C36.9799749,9.16054378 36.8096077,9.57117262 36.8096105,10.1041139 C36.8096077,10.8249025 37.0717118,11.5129256 37.5959228,12.1681831 C37.5959191,12.1681849 38.089548,12.7360772 39.0768106,13.8718598 L38.6443392,13.8718598 C37.8842336,13.3301789 37.2377101,12.7251559 36.7047688,12.0567891 C36.0320331,11.2136908 35.6956661,10.4317473 35.6956676,9.71095775 C35.6956661,9.26975336 35.8835074,8.85475565 36.2591918,8.46596276 L35.2566433,8.46596276 L34.1820164,7.37823117 L40.7542769,7.37823117 L40.7542769,5.37968663 L34.1623586,5.37968663 L33.2580994,4.47542791 L47.8769563,4.47542791 L48.7746626,5.37968663 L41.8420094,5.37968663 L41.8420094,7.50272992 C42.1215787,7.48963171 42.4317348,7.48526284 42.7724785,7.48962518 C43.1306791,7.49399964 43.5740707,7.51584212 44.1026571,7.55515074 C44.8015902,7.71241973 45.3410876,7.98981302 45.7211502,8.38733153 C46.2366095,8.92901801 46.4943448,9.54933107 46.4943569,10.2482707 C46.4943448,10.8205346 46.2912138,11.4670572 45.8849651,12.1878411 C45.6883753,12.5329463 45.3301664,13.0877328 44.8103382,13.8522027 L43.8471054,12.9151803 C44.1747257,12.6705507 44.6093815,12.3036059 45.1510735,11.814343 C45.6883753,11.2115063 45.9570318,10.6326938 45.9570439,10.0779035 C45.9570318,9.6192255 45.7757434,9.23262171 45.4131777,8.91809212 C45.0636943,8.61667845 44.4936186,8.44631031 43.7029486,8.40698957 C43.3403614,8.38952155 42.7200493,8.43757351 41.8420094,8.55114636 M59.9963587,5.37968663 L52.6902073,5.37968663 L51.7859476,4.47542791 L59.0920999,4.47542791 L59.9963587,5.37968663 M59.0789943,7.96796495 L55.842009,7.96796495 C56.0429517,8.04223384 56.3771347,8.26065393 56.844557,8.62322523 C57.3731294,9.02949172 57.6920223,9.35275346 57.8012374,9.59301043 C57.8842319,9.7721191 57.9257315,9.97743352 57.9257362,10.2089556 C57.9257315,10.6545353 57.7509955,11.0607962 57.401528,11.4277392 C57.0520521,11.7946868 56.654528,12.0109225 56.2089547,12.0764471 L56.8904254,13.7211506 L56.4907169,14.1339639 L55.6978512,12.2337096 C55.5274812,12.2861323 55.3309036,12.3123427 55.1081175,12.3123408 C54.7236962,12.3123427 54.3960666,12.2031322 54.1252266,11.9847102 C53.8325432,11.7488193 53.6862029,11.4430312 53.6862029,11.0673458 C53.6862029,10.4164581 53.9985415,10.0844596 54.6232244,10.0713502 C54.9333786,10.0626171 55.1976671,10.1696432 55.41609,10.3924284 C55.5777176,10.5584305 55.6847437,10.7484557 55.7371673,10.9625042 C55.9905309,10.9625079 56.2111354,10.8620342 56.39898,10.6610849 C56.5911859,10.4601422 56.6872908,10.2329853 56.6872945,9.97961423 C56.6872908,9.5427787 56.5584231,9.24354295 56.3006907,9.08190788 L53.7779389,7.48307281 L53.7779389,6.95886459 L59.0789943,6.95886459 L59.0789943,7.96796495 M59.0789943,5.37968663 L58.3647608,5.37968663 L57.4736068,4.47542791 L61.6082994,4.47542791 L62.5060057,5.37968663 L60.3043312,5.37968663 L60.3043312,13.8718598 L59.0789943,12.6465238 L59.0789943,5.37968663 M62.5780846,5.37968663 L61.601747,5.37968663 L60.6974874,4.47542791 L64.9959948,4.47542791 L65.8937011,5.37968663 L63.6527115,5.37968663 L63.6527115,13.8718598 L62.5780846,12.7841282 L62.5780846,5.37968663 M66.431015,9.35711673 C66.125226,8.97270203 65.9723314,8.64725679 65.9723324,8.38077916 C65.9723314,7.92210302 66.1492519,7.66873571 66.5030939,7.62067724 C66.503092,7.62068376 67.8856896,7.62068376 70.6508912,7.62067724 L70.6508912,5.37968663 L64.9828901,5.37968663 L64.0851828,4.47542791 L73.0294862,4.47542791 L73.9271926,5.37968663 L71.6993076,5.37968663 L71.6993076,13.8718598 L70.6508912,12.836549 L70.6508912,8.64943564 L67.8922457,8.64943564 L67.8922457,10.1172187 C67.8660325,10.3662208 67.7917692,10.5191153 67.6694567,10.5759013 C67.4772442,10.5584305 67.3221662,10.4754279 67.2042217,10.3269019 L66.431015,9.35711673 M73.0032758,5.37968663 L72.1055685,4.47542791 L84.3523838,4.47542791 L85.2500901,5.37968663 L79.1889328,5.37968663 L79.1889328,7.90243939 C79.3199784,7.7844986 79.4160832,7.70368293 79.4772473,7.65999239 C79.6257665,7.55078933 79.7721077,7.47652603 79.916271,7.43720436 C80.2133158,7.35421078 80.4907091,7.3127112 80.7484518,7.31270467 C81.4168094,7.3127112 81.9694115,7.54642046 82.4062601,8.0138334 C82.8430909,8.47688959 83.061511,9.04696533 83.0615204,9.72406249 C83.061511,10.265748 82.8693014,10.7768506 82.4848913,11.257372 C82.1965684,11.6286885 81.744439,11.9388445 81.1285032,12.1878411 L80.6501625,11.257372 C81.2704681,10.9690603 81.6854659,10.7419034 81.8951575,10.5759013 C82.3581988,10.2133272 82.5897236,9.81580312 82.589733,9.38332714 C82.5897236,8.99454451 82.4084352,8.64288886 82.0458676,8.32835833 C81.8143335,8.13178631 81.4539401,8.05752301 80.9646875,8.10556937 C80.7331552,8.12741744 80.4492086,8.28031104 80.1128496,8.56425203 C79.7808445,8.84383441 79.472872,9.18675419 79.1889328,9.59301043 L79.1889328,13.8718598 L78.1012003,12.7710225 L78.1012003,10.8642158 C77.9133539,11.0739019 77.6359606,11.2551904 77.2690195,11.4080812 C76.90207,11.5566096 76.5722559,11.630872 76.2795772,11.6308701 C75.6461557,11.630872 75.1044748,11.4146363 74.6545317,10.9821622 C74.2089529,10.5496937 73.9861648,10.0167496 73.9861658,9.38332714 C73.9861648,8.73680926 74.1980326,8.20386424 74.621768,7.78449207 C75.0455016,7.36076408 75.5806301,7.14889636 76.2271564,7.14888984 C77.0484113,7.14889636 77.6730923,7.49836851 78.1012003,8.19730628 L78.1012003,8.59701481 C77.7167763,8.25628506 77.2755682,8.08591786 76.777575,8.08591227 C76.1397846,8.08591786 75.6461557,8.21041661 75.2966863,8.45941039 C74.8161603,8.80015039 74.5540561,9.25446418 74.510374,9.82235176 C74.4841626,10.1805644 74.582451,10.468879 74.8052409,10.6872953 C74.9887119,10.8620342 75.2420792,10.9494022 75.5653428,10.9493994 C76.0283906,10.9494022 76.5591512,10.7135085 77.1576255,10.2417183 C77.7866707,9.74372426 78.1011956,9.26756892 78.1012003,8.81325047 L78.1012003,5.37968663 L73.0032758,5.37968663 M85.3549318,5.37968663 L84.3785942,5.37968663 L83.4743346,4.47542791 L87.772842,4.47542791 L88.6705483,5.37968663 L86.4295586,5.37968663 L86.4295586,13.8718598 L85.3549318,12.7841282 L85.3549318,5.37968663 M86.0953757,4.47542791 C85.7502705,3.94249314 85.4728772,3.5362313 85.2631949,3.25664334 C84.3938834,2.09029263 83.8915176,1.43284885 83.7560967,1.28431014 C82.982891,0.428117359 82.2752108,0 81.6330534,0 C81.1700056,0 80.6305092,0.0917499515 80.0145603,0.275209782 L81.2071345,1.48744106 C81.622135,1.42629555 81.9235542,1.3957172 82.1113932,1.39570415 C82.7186024,1.3957172 83.4088099,1.77139883 84.1820157,2.52275183 C84.8023287,3.12560246 85.3090624,3.77649387 85.7022195,4.47542791 L86.0953757,4.47542791 M89.7386228,8.68875172 C89.7386228,9.04696533 89.8762254,9.33091098 90.151437,9.54058961 C90.3436439,9.68911993 90.6319584,9.76775117 91.0163806,9.77648331 C91.365849,9.78522477 91.8092415,9.5274886 92.3465592,9.00327665 L89.7386228,5.41900271 L89.7386228,8.68875172 M90.1448846,5.37968663 L92.6807412,8.89188171 L92.6807412,9.73716816 C92.3137917,10.1478017 91.8529256,10.3531161 91.2981427,10.3531124 C90.8001412,10.3531161 90.3349071,10.2067749 89.9024376,9.91408773 C89.1423348,9.40298985 88.7622843,8.83072967 88.7622852,8.19730628 L88.7622852,5.37968663 L87.7859476,5.37968663 L86.8882404,4.47542791 L95.0855466,4.47542791 L96.002911,5.37968663 L93.755368,5.37968663 L93.755368,13.8718598 L92.6807412,12.7906806 L92.6807412,5.37968663 L90.1448846,5.37968663" id="bh-tagline" fill="#000000" fill-rule="nonzero"></path>
    </g>
</svg>

<svg xmlns="http://www.w3.org/2000/svg" width="96" height="18"><path fill="#000" fill-rule="nonzero" d="M5.059 10.235c.056-.044.268-.236.635-.576.192-.215.289-.684.289-1.41V5.38H2.936v4.266c0 .616.183 1.055.55 1.318l3.381 2.398c.271.192.537.389.8.59.27.262.406.552.406.871 0 .253-.14.535-.42.845-.122.18-.294.32-.517.42l-.662-.63c.21-.047.395-.163.557-.347a.828.828 0 0 0 .236-.583c-.005-.11-.064-.23-.177-.36a4.016 4.016 0 0 0-.387-.295l-3.348-2.405c-.153-.1-.435-.297-.845-.59a1.378 1.378 0 0 1-.472-.59c-.11-.266-.164-.624-.164-1.074V5.38h-.97L0 4.475h8.414l.897.898-2.24.007v3.086c-.005.459-.031.773-.08.944-.082.297-.268.567-.556.812l-1.042.885-.623-.63c.048-.043.144-.124.289-.242m5.89.839-1.356-1.77a1.256 1.256 0 0 1-.256-.537V8.46c.044-.126.169-.19.374-.19h1.212V5.38H8.374l-.904-.904h9.547l.917.905h-2.227v8.492L14.48 12.64V5.38H11.9v5.281c.008.061.013.14.013.236 0 .31-.107.498-.321.564a.38.38 0 0 1-.099.02c-.083 0-.174-.049-.275-.145l-.269-.262M18 5.38h-.976l-.905-.905h4.299l.898.905h-2.241v8.492L18 12.784V5.38m.74-.905c-.345-.533-.622-.939-.832-1.218-.869-1.167-1.371-1.824-1.507-1.973C15.628.428 14.921 0 14.278 0c-.463 0-1.002.092-1.618.275l1.192 1.212c.415-.06.717-.091.904-.091.608 0 1.298.375 2.071 1.127a8.609 8.609 0 0 1 1.52 1.952h.393m9.99 7.195c-.035.026-.168.04-.4.04-.1 0-.591-.523-1.474-1.567l-.4-.445c-.135-.157-.203-.312-.203-.465 0-.297.19-.446.57-.446.232 0 .555.004.97.013V5.38h-2.516l-.898-.905h9.823l.897.905h-2.26v8.492l-1.2-1.2V9.928h-2.79c0 .498.004.94.012 1.324.005.21-.039.35-.13.42M31.64 5.38h-2.792V8.8h2.792V5.38m.039 10.189-.773-.806c.485-.376 1.007-.55 1.566-.524.472.022.87.249 1.192.681.297.402.446.848.446 1.337 0 .585-.243 1.033-.727 1.343-.411.267-.924.4-1.54.4-.874 0-1.809-.426-2.805-1.278a10.633 10.633 0 0 1-2.07-2.411h.412c.38.65 1.038 1.289 1.973 1.913.983.656 1.83.983 2.542.983 1.175 0 1.763-.34 1.763-1.022 0-.227-.116-.448-.347-.662-.232-.21-.461-.314-.689-.314-.37 0-.685.12-.943.36m10.163-7.018v5.308l-1.088-1.095V8.466h-2.149c-.542 0-.97.135-1.284.406-.341.289-.511.7-.511 1.232 0 .72.262 1.409.786 2.064l1.48 1.704h-.432a9.537 9.537 0 0 1-1.94-1.815c-.672-.843-1.008-1.625-1.008-2.346 0-.441.188-.856.563-1.245h-1.002l-1.075-1.088h6.572V5.38h-6.592l-.904-.905h14.619l.898.905h-6.933v2.123c.28-.013.59-.018.93-.013.359.004.802.026 1.33.065.7.157 1.24.435 1.62.832.515.542.772 1.162.772 1.861 0 .573-.203 1.22-.609 1.94-.197.345-.555.9-1.075 1.664l-.963-.937c.328-.244.762-.611 1.304-1.1.537-.603.806-1.182.806-1.737 0-.459-.181-.845-.544-1.16-.35-.301-.92-.472-1.71-.511-.363-.017-.983.03-1.861.144M59.996 5.38H52.69l-.904-.905h7.306l.904.905m-.917 2.588h-3.237c.201.074.535.293 1.003.655.528.406.847.73.956.97.083.18.125.384.125.616 0 .446-.175.852-.524 1.219-.35.367-.747.583-1.193.648l.681 1.645-.4.413-.792-1.9c-.17.052-.367.078-.59.078-.384 0-.712-.109-.983-.327a1.124 1.124 0 0 1-.439-.918c0-.65.313-.983.937-.996.31-.008.575.099.793.321.162.166.269.356.321.57.254 0 .474-.1.662-.3a.96.96 0 0 0 .288-.682c0-.437-.129-.736-.386-.898l-2.523-1.599V6.96h5.301v1.009m0-2.588h-.714l-.891-.905h4.134l.898.905h-2.202v8.492l-1.225-1.225V5.38m3.5 0h-.977l-.905-.905h4.299l.898.905h-2.241v8.492l-1.075-1.088V5.38m3.853 3.977c-.306-.384-.459-.71-.459-.976 0-.459.177-.712.531-.76h4.148V5.38h-5.668l-.898-.905h8.944l.898.905H71.7v8.492l-1.048-1.035V8.649h-2.759v1.468c-.026.25-.1.402-.223.459a.645.645 0 0 1-.465-.25l-.773-.969m6.572-3.977-.897-.905h12.246l.898.905H79.19v2.522c.131-.118.227-.198.288-.242.149-.11.295-.183.44-.223.296-.083.574-.124.831-.124.669 0 1.221.233 1.658.7.437.464.656 1.034.656 1.711 0 .542-.193 1.053-.577 1.533-.288.372-.74.682-1.356.93l-.479-.93c.62-.288 1.035-.515 1.245-.681.463-.363.695-.76.695-1.193 0-.388-.182-.74-.544-1.055-.232-.196-.592-.27-1.081-.222-.232.021-.516.174-.852.458a5.31 5.31 0 0 0-.924 1.029v4.279L78.1 12.77v-1.907c-.188.21-.465.391-.832.544-.367.149-.697.223-.99.223a2.26 2.26 0 0 1-1.624-.649 2.14 2.14 0 0 1-.669-1.599c0-.646.212-1.18.636-1.599.424-.423.959-.635 1.605-.635.821 0 1.446.35 1.874 1.048v.4a1.938 1.938 0 0 0-1.323-.511c-.638 0-1.132.124-1.481.373-.48.341-.743.795-.787 1.363-.026.359.072.647.295.865.184.175.437.262.76.262.463 0 .994-.235 1.593-.707.629-.498.943-.974.943-1.429V5.38h-5.098m12.352 0h-.976l-.905-.905h4.299l.898.905H86.43v8.492l-1.075-1.088V5.38m.74-.905c-.345-.533-.622-.939-.832-1.218-.87-1.167-1.371-1.824-1.507-1.973C82.983.428 82.276 0 81.633 0c-.463 0-1.002.092-1.618.275l1.192 1.212c.415-.06.717-.091.904-.091.608 0 1.298.375 2.071 1.127a8.609 8.609 0 0 1 1.52 1.952h.393M89.74 8.69c0 .358.137.642.412.852.193.148.481.227.865.235.35.01.793-.249 1.33-.773L89.74 5.42v3.27m.406-3.31 2.536 3.513v.845c-.367.41-.828.616-1.383.616-.498 0-.963-.146-1.396-.439-.76-.511-1.14-1.083-1.14-1.717V5.38h-.976l-.898-.905h8.198l.917.905h-2.248v8.492l-1.074-1.081V5.38h-2.536"/></svg>
